Adwaita++/emotes/16/face-kiss.svg

<svg height="16" width="16" xmlns="http://www.w3.org/2000/svg">
  <path d="m8 1c-3.878 0-7 3.122-7 7s3.122 7 7 7 7-3.122 7-7-3.122-7-7-7z" fill="#ffa348"/>
  <path d="m6.3219864 10.5c-.054463.058136-.1056748.117177-.1484374.179298-.042559.055264-.090402.155856-.090402.155857-.052981.111263-.083147.227563-.083147.348634-.0000001.45062.5167064.816211 1.1540176.816211h.8459823.8459823c.6373108 0 1.1540177-.365591 1.1540177-.816211 0-.121071-.030163-.237372-.083148-.348634 0 0-.0484-.100594-.090959-.155857-.0427836-.062154-.0939412-.121134-.1484375-.179298z" fill="#ed333b"/>
  <path d="m7.1540177 9c-.6373112 0-1.1540177.3650059-1.1540177.815625 0 .1210733.030166.237958.083147.349219 0 0 .047842.10001.090402.155273.0427.06203.094071.121826.1484374.179883h3.355469c.0544-.05808.1057159-.117823.1484376-.179883.042555-.05526.090959-.155273.090959-.155273.0529815-.111261.083148-.2281457.083148-.349219 0-.4506191-.5167069-.815625-1.1540177-.815625-.3342346 0-.6351826.087882-.8459823.2484375-.2107998-.1605555-.5117474-.2484375-.8459823-.2484375z" fill="#f66151"/>
  <g fill="#5e5c64">
    <path d="m7 7.0115401c0 .5522847-.4477153 0-1 0s-1 .5522847-1 0 .4477153-1 1-1 1 .4477153 1 1z"/>
    <path d="m11 7.0115401c0 .5522847-.447715 0-1 0s-1 .5522847-1 0 .447715-1 1-1 1 .4477153 1 1z"/>
  </g>
</svg>

<svg xmlns="http://www.w3.org/2000/svg" width="16" height="16" version="1">
 <path d="M 8,1 C 4.122,1 1,4.122 1,8 c 0,3.878 3.122,7 7,7 3.878,0 7,-3.122 7,-7 C 15,4.122 11.878,1 8,1 Z" style="fill:#ffa348"/>
 <path d="M 6.3219864,10.5 C 6.2675234,10.558136 6.2163116,10.617177 6.173549,10.679298 6.13099,10.734562 6.083147,10.835154 6.083147,10.835155 6.030166,10.946418 6,11.062718 6,11.183789 5.9999999,11.634409 6.5167064,12 7.1540176,12 h 0.8459823 0.8459823 c 0.6373108,0 1.1540177,-0.365591 1.1540177,-0.816211 0,-0.121071 -0.030163,-0.237372 -0.083148,-0.348634 0,0 -0.0484,-0.100594 -0.090959,-0.155857 C 9.7831093,10.617144 9.7319517,10.558164 9.6774554,10.5 Z" style="fill:#ed333b"/>
 <path d="M 7.1540177,9 C 6.5167065,9 6,9.3650059 6,9.815625 c 0,0.1210733 0.030166,0.237958 0.083147,0.349219 0,0 0.047842,0.10001 0.090402,0.155273 0.0427,0.06203 0.094071,0.121826 0.1484374,0.179883 h 3.355469 c 0.0544,-0.05808 0.1057159,-0.117823 0.1484376,-0.179883 0.042555,-0.05526 0.090959,-0.155273 0.090959,-0.155273 C 9.9698335,10.053583 10,9.9366983 10,9.815625 10,9.3650059 9.4832931,9 8.8459823,9 8.5117477,9 8.2107997,9.087882 8,9.2484375 7.7892002,9.087882 7.4882526,9 7.1540177,9 Z" style="fill:#f66151"/>
 <path d="m 7,7.0115401 c 0,0.5522847 -0.4477153,0 -1,0 -0.5522847,0 -1,0.5522847 -1,0 0,-0.5522847 0.4477153,-1 1,-1 0.5522847,0 1,0.4477153 1,1 z" style="fill:#5e5c64"/>
 <path d="m 11,7.0115401 c 0,0.5522847 -0.447715,0 -1,0 -0.552285,0 -1,0.5522847 -1,0 0,-0.5522847 0.447715,-1 1,-1 0.552285,0 1,0.4477153 1,1 z" style="fill:#5e5c64"/>
</svg>
